!!!COM: Music21
!!!OTL: march_Unicorn--The
!!!OMV: march_Unicorn--The
**kern
=1
4b
8cc#L
8.dd
16eeK
8ff#J
4ryy
=
16eeKL
8.aaJ
8gg
4ff#
8ee
4ryy
=
4ff#
8bL
8.bJ
16cc#KL
8ddJ
4ryy
=
4cc#
8bL
8.cc#J
16ddKL
8eeJ
4ryy
=
4ff#
8b
4dd
8ee
4ryy
=
4cc#
8bL
8.aJ
16ddKL
8eeJ
4ryy
!!linebreak:original
=
8.ff#L
16eeJk
8ddL
8cc#J
8ddL
8eeJ
4ryy
=
8ff#L
8a
8cc#J
4b
8ff#
4ryy
=||
4b
8cc#L
8.dd
16eeK
8ff#J
4ryy
=
16eeKL
8.aaJ
8gg
4ff#
8ee
4ryy
=
4ff#
8bL
8.bJ
16cc#KL
8ddJ
4ryy
=
4cc#
8bL
8.cc#J
16ddKL
8eeJ
4ryy
!!linebreak:original
=
4ff#
8b
4dd
8ee
4ryy
=
4cc#
8bL
8.aJ
16ddKL
8eeJ
4ryy
=
8.ff#L
16eeJk
8ddL
8cc#J
8ddL
8eeJ
4ryy
=
8ff#L
8a
8cc#J
4b
8ff#
4ryy
=||
8.ddL
16eeJk
8ff#
4b
8ff#
4ryy
=
8.ggL
16bJk
8eeL
8.cc#J
16bKL
8aJ
4ryy
!!linebreak:original
=
8.bL
16cc#Jk
8ddL
8.gJ
16aKL
8bJ
4ryy
=
8aL
8eeJ
8ddL
8.cc#J
16bKL
8aJ
4ryy
=
8.ddL
16eeJk
8ff#
4b
8ff#
4ryy
=
8.ggL
16bJk
8eeL
8.cc#J
16ddKL
8eeJ
4ryy
=
8.ff#L
16eeJk
8ddL
8cc#J
8ddL
8eeJ
4ryy
=
8ff#L
8a
8cc#J
4b
8ff#
4ryy
!!linebreak:original
=||
8.bL
16bJk
8bL
8ff#J
8bL
8aaJ
4ryy
=
8.bL
16bJk
8bL
8aaJ
8bL
8ff#J
4ryy
=
8.eeL
16ff#Jk
8ddL
8.cc#J
16bKL
8cc#J
4ryy
=
8.aL
16cc#Jk
8eeL
8.ff#J
16eeKL
8ff#J
4ryy
=
8.bL
16bJk
8bL
8ff#J
8bL
8aaJ
4ryy
!!linebreak:original
=
8.bL
16bJk
8bL
8aaJ
8bL
8ff#J
4ryy
=
8.ff#L
16eeJk
8ddL
8cc#J
8ddL
8eeJ
4ryy
=
8ff#L
8a
8cc#J
4b
8ff#
4ryy
=||
4aa
8ggL
8.ff#J
16eeKL
8ddJ
4ryy
=
8.ff#L
16ggJk
8aaL
8.ff#J
16eeKL
8ddJ
4ryy
=
4gg
8ff#L
8.eeJ
16ff#KL
8ddJ
4ryy
!!linebreak:original
=
8.cc#L
16ddJk
8bL
8.cc#J
16ddKL
8eeJ
4ryy
=
4ff#
8b
4b
8a
4ryy
=
8.gL
16aJk
8bL
8.ddJ
16eeKL
8ff#J
4ryy
=
8.aaL
16ggJk
8ff#L
8.ggJ
16bKL
8eeJ
4ryy
=
16aKL
8.ddJ
8cc#
4b
8ff#
4ryy
=||
4aa
8ggL
8.ff#J
16eeKL
8ddJ
4ryy
!!linebreak:original
=
8.ff#L
16ggJk
8aaL
8.ff#J
16eeKL
8ddJ
4ryy
=
4gg
8ff#L
8.eeJ
16ff#KL
8ddJ
4ryy
=
8.cc#L
16ddJk
8bL
8.cc#J
16ddKL
8eeJ
4ryy
=
4ff#
8b
4b
8a
4ryy
=
8.gL
16aJk
8bL
8.ddJ
16eeKL
8ff#J
4ryy
!!linebreak:original
=
8.aaL
16ggJk
8ff#L
8.ggJ
16bKL
8eeJ
4ryy
=
16aKL
8.ddJ
8cc#
4.b
4ryy
=||
*-
